; generated by Slic3r 0.7.1 on 2012-12-02 at 10:24:19

; layer_height = .2
; perimeters = 1
; solid_layers = 2
; fill_density = .1
; nozzle_diameter = .5
; filament_diameter = 3
; extrusion_multiplier = 1
; perimeter_speed = 65
; infill_speed = 80
; travel_speed = 195
; extrusion_width_ratio = 0
; scale = 1
; single wall width = 0.70mm

M104 S210 ; set temperature

M109 S210 ; wait for temperature to be reached
G90 ; use absolute coordinates
G21 ; set units to millimeters
G92 E0 ; reset extrusion distance
M82 ; use absolute distances for extrusion
G1 Z0.200 F11700.000
G1 X77.225 Y85.384
G1 F1200.000 E1.00000
G1 X87.285 Y76.684 F1950.000 E1.24727
G1 X92.285 Y72.864 E1.36425
G1 X95.745 Y70.784 E1.43931
G1 X107.255 Y64.994 E1.67885
G1 X108.045 Y64.664 E1.69476
G1 X108.615 Y64.494 E1.70582
G1 X109.145 Y64.394 E1.71585
G1 X109.665 Y64.344 E1.72556
G1 X109.935 Y64.334 E1.73059
G1 X110.205 Y64.334 E1.73560
G1 X110.735 Y64.374 E1.74549
G1 X111.255 Y64.464 E1.75530
G1 X111.515 Y64.524 E1.76026
G1 X112.275 Y64.774 E1.77513
G1 X112.985 Y65.124 E1.78985
G1 X116.645 Y67.444 E1.87041
G1 X117.095 Y67.794 E1.88101
G1 X117.695 Y68.384 E1.89666
G1 X118.055 Y68.834 E1.90737
G1 X120.185 Y72.394 E1.98450
G1 X120.465 Y72.984 E1.99664
G1 X128.255 Y94.354 E2.41952
G1 X128.365 Y94.884 E2.42958
G1 X128.775 Y98.174 E2.49122
G1 X128.795 Y98.474 E2.49681
G1 X128.795 Y98.774 E2.50239
G1 X128.745 Y99.364 E2.51339
G1 X128.705 Y99.654 E2.51884
G1 X128.575 Y100.234 E2.52989
G1 X128.375 Y100.854 E2.54200
G1 X128.205 Y101.264 E2.55025
G1 X128.105 Y101.464 E2.55441
G1 X127.655 Y102.214 E2.57067
G1 X125.735 Y105.024 E2.63394
G1 X125.265 Y105.634 E2.64826
G1 X124.655 Y106.284 E2.66483
G1 X124.445 Y106.474 E2.67010
G1 X123.355 Y107.274 E2.69523
G1 X122.895 Y107.544 E2.70515
G1 X122.175 Y107.864 E2.71980
G1 X121.925 Y107.954 E2.72474
G1 X121.095 Y108.194 E2.74080
G1 X120.435 Y108.324 E2.75331
G1 X81.995 Y111.464 E3.47035
G1 X81.105 Y111.454 E3.48689
G1 X80.135 Y111.364 E3.50501
G1 X79.615 Y111.274 E3.51482
G1 X78.505 Y110.944 E3.53635
G1 X77.585 Y110.564 E3.55485
G1 X76.405 Y109.964 E3.57946
G1 X75.825 Y109.594 E3.59225
G1 X74.555 Y108.604 E3.62219
G1 X73.955 Y108.064 E3.63720
G1 X72.655 Y106.694 E3.67231
G1 X71.495 Y104.984 E3.71073
G1 X70.785 Y103.684 E3.73827
G1 X70.665 Y103.394 E3.74410
G1 X70.265 Y102.004 E3.77099
G1 X70.095 Y101.204 E3.78620
G1 X69.995 Y100.344 E3.80229
G1 X69.965 Y99.714 E3.81402
G1 X69.995 Y98.714 E3.83262
G1 X70.135 Y97.584 E3.85379
G1 X70.265 Y97.004 E3.86484
G1 X70.445 Y96.444 E3.87578
G1 X71.645 Y93.494 E3.93498
G1 X71.895 Y92.974 E3.94571
G1 X74.995 Y87.964 E4.05524
G1 X75.395 Y87.394 E4.06819
G1 X76.745 Y85.814 E4.10683
G1 X77.146 Y85.453 E4.11686
G1 F1200.000 E3.11686
G92 E0
G1 X81.027 Y90.039 F11700.000
G1 F1200.000 E1.00000
G1 X82.042 Y89.407 F1950.000 E1.02222
G1 X82.702 Y89.136 E1.03549
G1 X83.274 Y88.995 E1.04644
G1 X83.830 Y88.818 E1.05729
G1 X84.459 Y88.547 E1.07002
G1 X84.628 Y88.426 E1.07388
G1 X84.849 Y88.248 E1.07915
G1 X86.122 Y87.029 E1.11193
G1 X86.324 Y86.800 E1.11761
G1 X86.568 Y86.631 E1.12312
G1 X88.210 Y85.296 E1.16246
G1 X88.405 Y85.090 E1.16774
G1 X88.757 Y84.631 E1.17850
G1 X89.825 Y82.905 E1.21624
G1 X90.456 Y82.026 E1.23634
G1 X90.969 Y81.426 E1.25103
G1 X91.549 Y81.115 E1.26326
G1 X91.640 Y81.040 E1.26544
G1 X91.645 Y81.037 E1.26556
G1 X92.030 Y80.873 E1.27334
G1 X92.552 Y80.600 E1.28428
G1 X92.977 Y80.332 E1.29363
G1 X93.203 Y80.137 E1.29919
G1 X93.538 Y79.730 E1.30897
G1 X93.707 Y79.497 E1.31433
G1 X93.963 Y79.213 E1.32145
G1 X94.126 Y79.009 E1.32630
G1 X94.271 Y78.864 E1.33011
G1 X94.432 Y78.779 E1.33349
G1 X94.588 Y78.715 E1.33663
G1 X95.141 Y78.370 E1.34875
G1 X95.230 Y78.304 E1.35081
G1 X95.867 Y77.679 E1.36740
G1 X98.666 Y76.031 E1.42778
G1 X98.691 Y76.014 E1.42834
G1 X98.710 Y76.013 E1.42870
G1 X99.494 Y75.859 E1.44355
G1 X99.563 Y75.838 E1.44490
G1 X99.648 Y75.808 E1.44658
G1 X100.213 Y75.538 E1.45823
G1 X100.233 Y75.522 E1.45869
G1 X101.385 Y74.933 E1.48275
G1 X101.397 Y74.928 E1.48299
G1 X101.708 Y74.772 E1.48945
G1 X102.350 Y74.517 E1.50230
G1 X102.905 Y74.364 E1.51301
G1 X102.939 Y74.360 E1.51365
G1 X103.405 Y74.259 E1.52251
G1 X104.339 Y74.152 E1.53998
G1 X105.202 Y73.936 E1.55652
G1 X105.497 Y73.781 E1.56271
G1 X105.630 Y73.722 E1.56541
G1 X106.565 Y72.991 E1.58748
G1 X107.076 Y72.525 E1.60034
G1 X107.601 Y71.966 E1.61460
G1 X107.644 Y71.915 E1.61585
G1 X108.140 Y71.464 E1.62831
G1 X108.409 Y71.295 E1.63422
G1 X108.520 Y71.202 E1.63691
G1 X109.074 Y70.996 E1.64790
G1 X109.168 Y70.941 E1.64992
G1 X109.409 Y70.844 E1.65475
G1 X109.575 Y70.763 E1.65819
G1 X109.751 Y70.611 E1.66250
G1 X109.947 Y70.363 E1.66838
G1 X110.014 Y70.342 E1.66969
G1 X110.117 Y70.434 E1.67226
G1 X110.181 Y70.621 E1.67594
G1 X110.146 Y71.258 E1.68780
G1 X110.170 Y71.595 E1.69409
G1 X110.370 Y71.836 E1.69991
G1 X110.595 Y71.995 E1.70503
G1 X110.769 Y72.047 E1.70840
G1 X111.293 Y72.097 E1.71819
G1 X111.330 Y72.094 E1.71889
G1 X112.058 Y72.128 E1.73244
G1 X112.130 Y72.137 E1.73378
G1 X112.786 Y72.282 E1.74627
G1 X112.835 Y72.282 E1.74719
G1 X112.997 Y72.284 E1.75019
G1 X113.104 Y72.312 E1.75226
G1 X113.198 Y72.363 E1.75424
G1 X113.165 Y72.568 E1.75811
G1 X113.182 Y72.858 E1.76350
G1 X113.227 Y73.106 E1.76820
G1 X113.281 Y73.315 E1.77221
G1 X113.347 Y73.482 E1.77553
G1 X113.449 Y73.670 E1.77952
G1 X113.525 Y73.774 E1.78192
G1 X113.715 Y74.142 E1.78962
G1 X113.869 Y74.232 E1.79293
G1 X114.257 Y74.594 E1.80280
G1 X114.294 Y74.640 E1.80389
G1 X114.911 Y75.260 E1.82016
G1 X114.944 Y75.484 E1.82437
G1 X114.880 Y75.696 E1.82849
G1 X114.715 Y76.053 E1.83579
G1 X114.632 Y76.209 E1.83908
G1 X114.579 Y76.289 E1.84086
G1 X114.467 Y76.439 E1.84435
G1 X114.433 Y76.534 E1.84623
G1 X114.165 Y76.776 E1.85293
G1 X113.975 Y76.913 E1.85729
G1 X113.883 Y77.047 E1.86031
G1 X113.786 Y77.320 E1.86570
G1 X113.749 Y77.683 E1.87248
G1 X113.799 Y77.850 E1.87572
G1 X114.034 Y78.210 E1.88371
G1 X114.111 Y78.284 E1.88569
G1 X114.205 Y78.333 E1.88766
G1 X114.599 Y78.494 E1.89558
G1 X114.707 Y78.526 E1.89768
G1 X114.743 Y78.564 E1.89865
G1 X114.852 Y78.638 E1.90109
G1 X114.822 Y78.812 E1.90439
G1 X114.831 Y78.900 E1.90603
G1 X114.630 Y79.293 E1.91424
G1 X114.565 Y79.354 E1.91589
G1 X114.440 Y79.560 E1.92038
G1 X114.396 Y79.589 E1.92136
G1 X114.276 Y79.619 E1.92364
G1 X113.606 Y79.907 E1.93720
G1 X112.775 Y80.139 E1.95325
G1 X112.071 Y80.272 E1.96657
G1 X109.597 Y80.910 E2.01407
G1 X109.250 Y80.952 E2.02057
G1 X108.769 Y81.090 E2.02988
G1 X108.603 Y81.153 E2.03317
G1 X108.516 Y81.203 E2.03503
G1 X107.992 Y81.564 E2.04686
G1 X107.867 Y81.694 E2.05022
G1 X107.607 Y82.054 E2.05848
G1 X107.598 Y82.063 E2.05871
G1 X107.426 Y82.332 E2.06464
G1 X106.762 Y83.224 E2.08532
G1 X106.648 Y83.423 E2.08959
G1 X106.562 Y83.683 E2.09469
G1 X106.535 Y83.732 E2.09571
G1 X106.496 Y83.898 E2.09889
G1 X106.564 Y84.298 E2.10643
G1 X106.587 Y84.385 E2.10811
G1 X106.632 Y84.446 E2.10951
G1 X106.810 Y84.720 E2.11558
G1 X106.942 Y84.842 E2.11892
G1 X107.037 Y84.952 E2.12164
G1 X107.620 Y85.438 E2.13575
G1 X107.738 Y85.509 E2.13831
G1 X107.782 Y85.560 E2.13956
G1 X108.299 Y86.041 E2.15269
G1 X108.701 Y86.369 E2.16233
G1 X108.786 Y86.430 E2.16428
G1 X108.968 Y86.630 E2.16930
G1 X109.091 Y86.880 E2.17448
G1 X109.328 Y87.250 E2.18265
G1 X109.421 Y87.325 E2.18486
G1 X109.774 Y87.550 E2.19265
G1 X109.951 Y87.604 E2.19608
G1 X110.433 Y87.789 E2.20569
G1 X110.527 Y87.880 E2.20812
G1 X110.585 Y87.948 E2.20978
G1 X110.604 Y88.004 E2.21088
G1 X110.611 Y88.045 E2.21166
G1 X110.598 Y88.105 E2.21279
G1 X110.499 Y88.334 E2.21745
G1 X110.429 Y88.585 E2.22228
G1 X110.422 Y89.037 E2.23069
G1 X110.438 Y89.088 E2.23169
G1 X110.563 Y89.861 E2.24624
G1 X110.626 Y90.066 E2.25023
G1 X110.661 Y90.149 E2.25190
G1 X110.793 Y90.356 E2.25648
G1 X110.880 Y90.541 E2.26026
G1 X111.162 Y90.789 E2.26726
G1 X111.419 Y90.959 E2.27298
G1 X111.467 Y91.015 E2.27435
G1 X111.570 Y91.171 E2.27783
G1 X111.644 Y91.384 E2.28203
G1 X111.682 Y92.446 E2.30177
G1 X111.725 Y92.843 E2.30920
G1 X111.788 Y92.976 E2.31195
G1 X111.866 Y93.120 E2.31497
G1 X112.073 Y93.357 E2.32083
G1 X112.217 Y93.442 E2.32395
G1 X112.489 Y93.640 E2.33020
G1 X112.787 Y93.562 E2.33593
G1 X113.020 Y93.534 E2.34029
G1 X113.186 Y93.462 E2.34366
G1 X113.871 Y93.051 E2.35851
G1 X113.892 Y93.031 E2.35905
G1 X114.137 Y92.863 E2.36458
G1 X114.526 Y92.695 E2.37246
G1 X114.808 Y92.539 E2.37844
G1 X115.324 Y92.395 E2.38841
G1 X115.600 Y92.298 E2.39385
G1 X117.077 Y92.037 E2.42172
G1 X117.282 Y92.030 E2.42553
G1 X117.523 Y91.999 E2.43007
G1 X117.617 Y92.008 E2.43182
G1 X117.913 Y92.002 E2.43731
G1 X118.289 Y92.048 E2.44437
G1 X118.503 Y92.100 E2.44846
G1 X118.597 Y92.161 E2.45055
G1 X118.881 Y92.374 E2.45714
G1 X119.027 Y92.433 E2.46007
G1 X119.420 Y92.529 E2.46758
G1 X119.727 Y92.542 E2.47329
G1 X119.790 Y92.558 E2.47452
G1 X120.149 Y92.706 E2.48173
G1 X120.239 Y92.853 E2.48494
G1 X120.284 Y92.918 E2.48641
G1 X120.299 Y93.185 E2.49137
G1 X120.223 Y93.613 E2.49946
G1 X120.233 Y93.697 E2.50102
G1 X120.234 Y93.842 E2.50373
G1 X120.254 Y94.080 E2.50817
G1 X120.536 Y94.501 E2.51758
G1 X120.888 Y94.754 E2.52564
G1 X121.055 Y94.853 E2.52926
G1 X121.237 Y94.995 E2.53355
G1 X121.616 Y95.248 E2.54202
G1 X122.139 Y95.538 E2.55314
G1 X122.302 Y95.642 E2.55674
G1 X122.397 Y95.766 E2.55964
G1 X122.458 Y95.898 E2.56234
G1 X122.460 Y95.928 E2.56290
G1 X122.427 Y96.008 E2.56451
G1 X122.363 Y96.094 E2.56650
G1 X122.136 Y96.494 E2.57506
G1 X122.085 Y96.599 E2.57723
G1 X122.017 Y96.767 E2.58059
G1 X121.991 Y97.060 E2.58606
G1 X121.974 Y97.165 E2.58804
G1 X122.114 Y97.625 E2.59698
G1 X122.225 Y97.820 E2.60115
G1 X122.368 Y98.027 E2.60583
G1 X122.555 Y98.192 E2.61046
G1 X122.579 Y98.238 E2.61143
G1 X122.767 Y98.486 E2.61721
G1 X122.796 Y98.625 E2.61986
G1 X122.762 Y98.748 E2.62223
G1 X122.708 Y98.839 E2.62420
G1 X122.506 Y99.058 E2.62974
G1 X122.432 Y99.122 E2.63156
G1 X122.306 Y99.214 E2.63445
G1 X122.182 Y99.294 E2.63720
G1 X122.165 Y99.304 E2.63757
G1 X121.627 Y99.482 E2.64809
G1 X121.606 Y99.496 E2.64856
G1 X121.346 Y99.593 E2.65373
G1 X121.214 Y99.720 E2.65713
G1 X121.005 Y99.887 E2.66212
G1 X120.887 Y100.123 E2.66701
G1 X120.812 Y100.589 E2.67580
G1 X120.812 Y100.673 E2.67736
G1 X120.823 Y100.709 E2.67805
G1 X120.900 Y101.224 E2.68773
G1 X120.901 Y101.463 E2.69218
G1 X120.792 Y101.647 E2.69615
G1 X120.547 Y101.916 E2.70292
G1 X120.096 Y102.234 E2.71318
G1 X120.086 Y102.238 E2.71337
G1 X119.586 Y102.387 E2.72307
G1 X119.281 Y102.387 E2.72875
G1 X119.177 Y102.378 E2.73069
G1 X119.148 Y102.372 E2.73124
G1 X119.082 Y102.361 E2.73247
G1 X118.702 Y102.341 E2.73956
G1 X118.580 Y102.316 E2.74187
G1 X117.996 Y102.133 E2.75324
G1 X117.546 Y102.049 E2.76176
G1 X117.476 Y102.049 E2.76305
G1 X116.809 Y102.082 E2.77548
G1 X115.823 Y101.984 E2.79390
G1 X114.895 Y102.053 E2.81119
G1 X113.353 Y102.196 E2.83998
G1 X113.346 Y102.203 E2.84016
G1 X113.018 Y102.233 E2.84629
G1 X113.001 Y102.233 E2.84661
G1 X112.752 Y102.270 E2.85128
G1 X111.526 Y102.310 E2.87409
G1 X110.851 Y102.438 E2.88687
G1 X109.483 Y102.890 E2.91365
G1 X109.433 Y102.901 E2.91460
G1 X109.336 Y102.942 E2.91657
G1 X108.748 Y103.256 E2.92895
G1 X108.527 Y103.337 E2.93333
G1 X108.508 Y103.340 E2.93369
G1 X108.336 Y103.353 E2.93690
G1 X107.866 Y103.355 E2.94564
G1 X107.680 Y103.372 E2.94911
G1 X104.782 Y103.926 E3.00396
G1 X104.176 Y103.959 E3.01525
G1 X104.144 Y103.965 E3.01585
G1 X104.110 Y103.965 E3.01648
G1 X103.182 Y104.105 E3.03394
G1 X103.074 Y104.106 E3.03593
G1 X102.612 Y103.992 E3.04478
G1 X101.658 Y103.837 E3.06276
G1 X101.648 Y103.836 E3.06294
G1 X101.598 Y103.827 E3.06389
G1 X100.952 Y103.764 E3.07596
G1 X100.321 Y103.564 E3.08826
G1 X99.528 Y103.197 E3.10451
G1 X99.407 Y103.120 E3.10717
G1 X96.932 Y101.938 E3.15817
G1 X96.453 Y101.753 E3.16770
G1 X96.217 Y101.678 E3.17231
G1 X96.193 Y101.674 E3.17276
G1 X95.842 Y101.593 E3.17946
G1 X95.774 Y101.582 E3.18075
G1 X95.435 Y101.565 E3.18705
G1 X94.996 Y101.603 E3.19525
G1 X94.983 Y101.607 E3.19550
G1 X94.667 Y101.649 E3.20142
G1 X93.937 Y101.859 E3.21554
G1 X92.611 Y102.030 E3.24041
G1 X91.836 Y101.974 E3.25485
G1 X90.954 Y101.986 E3.27125
G1 X88.600 Y102.230 E3.31525
G1 X87.883 Y102.388 E3.32889
G1 X86.634 Y102.774 E3.35320
G1 X86.592 Y102.791 E3.35405
G1 X86.502 Y102.807 E3.35575
G1 X86.213 Y102.911 E3.36145
G1 X86.013 Y102.997 E3.36551
G1 X85.662 Y103.232 E3.37335
G1 X85.200 Y103.697 E3.38553
G1 X84.904 Y103.962 E3.39293
G1 X84.684 Y104.075 E3.39752
G1 X84.075 Y104.496 E3.41130
G1 X83.248 Y104.961 E3.42892
G1 X82.515 Y105.279 E3.44377
G1 X82.370 Y105.362 E3.44689
G1 X82.345 Y105.379 E3.44746
G1 X81.616 Y105.479 E3.46114
G1 X80.921 Y105.419 E3.47410
G1 X80.856 Y105.395 E3.47539
G1 X80.318 Y105.226 E3.48588
G1 X79.491 Y104.790 E3.50326
G1 X79.344 Y104.724 E3.50625
G1 X78.251 Y103.883 E3.53189
G1 X77.381 Y102.988 E3.55509
G1 X77.267 Y102.851 E3.55841
G1 X76.708 Y102.007 E3.57723
G1 X76.281 Y101.263 E3.59319
G1 X76.070 Y100.464 E3.60854
G1 X75.987 Y100.058 E3.61625
G1 X75.964 Y99.516 E3.62633
G1 X75.955 Y99.424 E3.62805
G1 X76.063 Y98.586 E3.64376
G1 X77.061 Y96.098 E3.69359
G1 X77.312 Y95.583 E3.70424
G1 X77.705 Y95.125 E3.71547
G1 X77.800 Y94.981 E3.71866
G1 X78.142 Y94.592 E3.72830
G1 X78.508 Y94.223 E3.73796
G1 X78.748 Y93.949 E3.74474
G1 X78.769 Y93.918 E3.74542
G1 X78.805 Y93.882 E3.74638
G1 X79.259 Y92.583 E3.77196
G1 X80.077 Y91.162 E3.80244
G1 X80.565 Y90.546 E3.81706
G1 X80.952 Y90.112 E3.82787
G1 X81.094 Y90.551 F11700.000
G1 X92.036 Y101.493 F2100.000 E4.12117
G1 X91.083 Y101.509 F11700.000
G1 X80.653 Y91.079 F2100.000 E4.40074
G1 X80.263 Y91.657 F11700.000
G1 X90.206 Y101.600 F2100.000 E4.66725
G1 X89.328 Y101.691 F11700.000
G1 X79.909 Y92.272 F2100.000 E4.91972
G1 X79.592 Y92.923 F11700.000
G1 X88.473 Y101.805 F2100.000 E5.15779
G1 X87.695 Y101.995 F11700.000
G1 X79.341 Y93.641 F2100.000 E5.38172
G1 X78.999 Y94.268 F11700.000
G1 X86.955 Y102.224 F2100.000 E5.59498
G1 X86.219 Y102.457 F11700.000
G1 X78.530 Y94.767 F2100.000 E5.80110
G1 X78.082 Y95.288 F11700.000
G1 X85.589 Y102.795 F2100.000 E6.00233
G1 X85.079 Y103.254 F11700.000
G1 X77.653 Y95.828 F2100.000 E6.20137
G1 X77.353 Y96.496 F11700.000
G1 X84.541 Y103.685 F2100.000 E6.39406
G1 X83.968 Y104.080 F11700.000
G1 X77.067 Y97.179 F2100.000 E6.57904
G1 X76.786 Y97.867 F11700.000
G1 X83.353 Y104.433 F2100.000 E6.75504
G1 X82.696 Y104.745 F11700.000
G1 X76.525 Y98.574 F2100.000 E6.92044
G1 X80.822 Y104.809 F11700.000
G1 X76.680 Y100.666 F2100.000 E7.03149
G1 X76.452 Y99.469 E7.05458
G1 X81.955 Y104.973 E7.20209
G1 X93.027 Y101.515 F11700.000
G1 X81.641 Y90.129 F2100.000 E7.50729
G1 X82.255 Y89.774 F11700.000
G1 X93.886 Y101.405 F2100.000 E7.81905
G1 X94.652 Y101.202 F11700.000
G1 X82.971 Y89.522 F2100.000 E8.13215
G1 X83.721 Y89.304 F11700.000
G1 X95.510 Y101.092 F2100.000 E8.44814
G1 X96.613 Y101.227 F11700.000
G1 X84.410 Y89.023 F2100.000 E8.77526
G1 X84.998 Y88.642 F11700.000
G1 X98.307 Y101.952 F2100.000 E9.13201
G1 X100.182 Y102.858 E9.17148
G1 X85.500 Y88.176 E9.56502
G1 X85.995 Y87.703 F11700.000
G1 X101.619 Y103.326 F2100.000 E9.98381
G1 X102.755 Y103.494 E10.00557
G1 X86.483 Y87.222 E10.44172
G1 X87.013 Y86.784 F11700.000
G1 X103.785 Y103.555 F2100.000 E10.89128
G1 X104.660 Y103.462 F11700.000
G1 X87.548 Y86.350 F2100.000 E11.34997
G1 X88.082 Y85.915 F11700.000
G1 X105.508 Y103.341 F2100.000 E11.81704
G1 X106.332 Y103.196 F11700.000
G1 X88.600 Y85.464 F2100.000 E12.29234
G1 X89.034 Y84.929 F11700.000
G1 X107.143 Y103.038 F2100.000 E12.77775
G1 X107.955 Y102.882 F11700.000
G1 X89.414 Y84.341 F2100.000 E13.27473
G1 X89.784 Y83.743 F11700.000
